X:324
T:Sari Gelin
T:The Blonde Bride
Z:Jack Campin, http://www.campin.me.uk/
F:Jack Campin's Nine-Note Tunebook
% last edit 03-02-2013
G:Turkish-Armenian Romeo-and-Juliet ballad from Erzurum
N:also known in Armenian and Azeri tradition
N:see http://en.wikipedia.org/wiki/Sari_Gelin
M:10/8
L:1/8
Q:1/4=120
K:EPhr
  z2  E            E2    B3                    |\
  B2  A3          (BA    B3)                   |\
  B2 (B/c/) (B>A) (A>G)  A``````````````B     z|
  B2 ^c      A2   (G>F) (G/A/)``````````A     z|\
  G2  A      F2    E2   (E/G/)("^gliss."G{E}) z|\
  F2  G      E2    E2-   E3                   ||
|:z2  G      G2    A2    A3                    |\
  A2  G3          (AG    A              B2)    |\
  Bz  G      A2    B2    B3                    |\
  B2 (B/c/)  A2   (A>G) (A/B/)``````````B     z|
  B2 ^c      A2   (G>F) (G/A/)``````````A     z|\
  G2  A      F2    E2   (E/G/)("^gliss."G{E}) z|\
  F2  G      E2    E2-   E3                   :|

